packages/icons/raw/imported/TextBulletsList.svg

<svg width="32" height="32" viewBox="0 0 32 32" fill="none" xmlns="http://www.w3.org/2000/svg">
<path d="M13.2308 21.6462C12.9546 21.6462 12.7308 21.8701 12.7308 22.1462C12.7308 22.4223 12.9546 22.6462 13.2308 22.6462V21.6462ZM25 22.6462C25.2761 22.6462 25.5 22.4223 25.5 22.1462C25.5 21.8701 25.2761 21.6462 25 21.6462V22.6462ZM13.2308 15.4154C12.9546 15.4154 12.7308 15.6393 12.7308 15.9154C12.7308 16.1916 12.9546 16.4154 13.2308 16.4154V15.4154ZM25 16.4154C25.2761 16.4154 25.5 16.1916 25.5 15.9154C25.5 15.6393 25.2761 15.4154 25 15.4154V16.4154ZM13.2308 9.18466C12.9546 9.18466 12.7308 9.40852 12.7308 9.68466C12.7308 9.96081 12.9546 10.1847 13.2308 10.1847V9.18466ZM25 10.1847C25.2761 10.1847 25.5 9.96081 25.5 9.68466C25.5 9.40852 25.2761 9.18466 25 9.18466V10.1847ZM9.26923 9.68466C9.26923 10.1732 8.87318 10.5693 8.38462 10.5693V11.5693C9.42546 11.5693 10.2692 10.7255 10.2692 9.68466H9.26923ZM8.38462 10.5693C7.89606 10.5693 7.5 10.1732 7.5 9.68466H6.5C6.5 10.7255 7.34377 11.5693 8.38462 11.5693V10.5693ZM7.5 9.68466C7.5 9.1961 7.89606 8.80005 8.38462 8.80005V7.80005C7.34377 7.80005 6.5 8.64382 6.5 9.68466H7.5ZM8.38462 8.80005C8.87318 8.80005 9.26923 9.1961 9.26923 9.68466H10.2692C10.2692 8.64382 9.42546 7.80005 8.38462 7.80005V8.80005ZM9.26923 15.9154C9.26923 16.404 8.87318 16.8 8.38462 16.8V17.8C9.42546 17.8 10.2692 16.9563 10.2692 15.9154H9.26923ZM8.38462 16.8C7.89606 16.8 7.5 16.404 7.5 15.9154H6.5C6.5 16.9563 7.34377 17.8 8.38462 17.8V16.8ZM7.5 15.9154C7.5 15.4269 7.89606 15.0308 8.38462 15.0308V14.0308C7.34377 14.0308 6.5 14.8746 6.5 15.9154H7.5ZM8.38462 15.0308C8.87318 15.0308 9.26923 15.4269 9.26923 15.9154H10.2692C10.2692 14.8746 9.42546 14.0308 8.38462 14.0308V15.0308ZM9.26923 22.1462C9.26923 22.6348 8.87318 23.0308 8.38462 23.0308V24.0308C9.42546 24.0308 10.2692 23.187 10.2692 22.1462H9.26923ZM8.38462 23.0308C7.89606 23.0308 7.5 22.6348 7.5 22.1462H6.5C6.5 23.187 7.34377 24.0308 8.38462 24.0308V23.0308ZM7.5 22.1462C7.5 21.6576 7.89606 21.2616 8.38462 21.2616V20.2616C7.34377 20.2616 6.5 21.1054 6.5 22.1462H7.5ZM8.38462 21.2616C8.87317 21.2616 9.26923 21.6576 9.26923 22.1462H10.2692C10.2692 21.1054 9.42546 20.2616 8.38462 20.2616V21.2616ZM13.2308 22.6462H25V21.6462H13.2308V22.6462ZM13.2308 16.4154H25V15.4154H13.2308V16.4154ZM13.2308 10.1847H25V9.18466H13.2308V10.1847Z" fill="black"/>
</svg>

<svg width="32" height="32" fill="none" xmlns="http://www.w3.org/2000/svg"><path d="M13.23 21.646a.5.5 0 1 0 0 1v-1Zm11.77 1a.5.5 0 0 0 0-1v1Zm-11.77-7.23a.5.5 0 1 0 0 1v-1Zm11.77 1a.5.5 0 1 0 0-1v1ZM13.23 9.184a.5.5 0 1 0 0 1v-1Zm11.77 1a.5.5 0 0 0 0-1v1Zm-15.73-.5a.885.885 0 0 1-.885.884v1c1.04 0 1.884-.844 1.884-1.884h-1Zm-.885.884a.885.885 0 0 1-.885-.884h-1c0 1.04.844 1.884 1.885 1.884v-1ZM7.5 9.685c0-.489.396-.885.885-.885v-1C7.344 7.8 6.5 8.644 6.5 9.685h1Zm.885-.885c.488 0 .884.396.884.885h1c0-1.041-.844-1.885-1.884-1.885v1Zm.884 7.115a.885.885 0 0 1-.884.885v1c1.04 0 1.884-.844 1.884-1.885h-1Zm-.884.885a.885.885 0 0 1-.885-.885h-1c0 1.041.844 1.885 1.885 1.885v-1Zm-.885-.885c0-.488.396-.884.885-.884v-1c-1.041 0-1.885.844-1.885 1.884h1Zm.885-.884c.488 0 .884.396.884.884h1c0-1.04-.844-1.884-1.884-1.884v1Zm.884 7.115a.885.885 0 0 1-.884.885v1c1.04 0 1.884-.844 1.884-1.885h-1Zm-.884.885a.885.885 0 0 1-.885-.885h-1c0 1.041.844 1.885 1.885 1.885v-1Zm-.885-.885c0-.488.396-.884.885-.884v-1c-1.041 0-1.885.843-1.885 1.884h1Zm.885-.884c.488 0 .884.396.884.884h1c0-1.04-.844-1.884-1.884-1.884v1Zm4.846 1.384H25v-1H13.23v1Zm0-6.23H25v-1H13.23v1Zm0-6.231H25v-1H13.23v1Z" fill="#000"/></svg>
